X: 104202
T: WIND THAT SHAKES THE BARLEY
Q:"Reel."
R: Reel.
%R:reel
B: James Kerr "Merry Melodies" v.1 p.4 s.2 #2
Z: 2017 John Chambers <jc:trillian.mit.edu>
M: C
L: 1/8
K: D
|: B |\
A2(AB) AFED | B2(BA) BcdB |\
A2(AB) AFED | gfed Bcd :|\
e |\
f2fd g2ge | f2fd (Bc)de |
f2fd g2ge | afed B2(de) |\
f2fd g2ge | f2fd (Bc)de |\
fafd gbge | afed Bcd :|

%%sep 1 1 500
%%sep 1 1 500

